client/public/img/game/shared/buildings/armory_inner_vault_ceiling_1.svg

<?xml version="1.0" encoding="UTF-8" standalone="no"?>
<svg
   width="417.82297"
   height="364.85013"
   viewBox="0 0 417.82296 364.85014"
   fill="none"
   version="1.1"
   id="svg2"
   xmlns="http://www.w3.org/2000/svg"
   xmlns:svg="http://www.w3.org/2000/svg">
  <defs
     id="defs2" />
  <g
     id="g2"
     transform="matrix(0,0.54970183,-0.7060181,0,418.16771,-0.32960617)">
    <rect
       x="0.59960902"
       y="0.48828101"
       width="1322"
       height="591"
       fill="#313335"
       id="rect1"
       style="fill:#262626;fill-opacity:1" />
    <g
       id="g1"
       transform="matrix(0.99077201,0,0,0.99077201,6.1052545,2.731523)">
      <rect
         x="9.5996103"
         y="9.4902296"
         width="1304"
         height="573"
         fill="#4b4f53"
         id="rect2"
         style="fill:#4b4b4b;fill-opacity:1" />
      <path
         d="M 141.306,586.988 5.09961,450.782 V 406.941 L 185.147,586.988 Z M 5.09961,275.041 v -43.84 L 360.887,586.988 h -43.84 z m 0,-219.5785 L 536.625,586.988 h -43.84 L 5.09961,99.3031 Z M 130.366,4.98828 712.366,586.988 H 668.525 L 86.525,4.98828 Z M 844.263,586.988 262.263,4.98828 h 43.841 l 582,581.99972 z M 481.844,4.98828 1063.84,586.988 H 1020 L 438.004,4.98828 Z M 1195.74,586.988 613.742,4.98828 h 43.84 L 1239.58,586.988 Z M 833.323,4.98828 1318.1,489.765 v 43.841 L 789.482,4.98828 Z m 175.737,0 309.04,309.03872 v 43.84 L 965.22,4.98828 Z m 175.74,0 133.3,133.29872 v 43.84 L 1140.96,4.98828 Z"
         fill="#6d7379"
         stroke="#313335"
         stroke-width="9"
         id="path2"
         style="fill:#606060;fill-opacity:1;stroke:#262626;stroke-opacity:1" />
    </g>
  </g>
</svg>

<svg xmlns="http://www.w3.org/2000/svg" width="417.823" height="364.85" fill="none"><path fill="#313335" d="M.6.488h1322v591H.6z" style="fill:#262626;fill-opacity:1" transform="matrix(0 .5497 -.70602 0 418.168 -.33)"/><path fill="#4b4f53" d="M9.6 9.49h1304v573H9.6z" style="fill:#4b4b4b;fill-opacity:1" transform="matrix(0 .54463 -.6995 0 416.24 3.026)"/><path fill="#6d7379" stroke="#313335" stroke-width="9" d="M141.306 586.988 5.1 450.782v-43.841l180.047 180.047ZM5.1 275.041v-43.84l355.787 355.787h-43.84zm0-219.578 531.525 531.525h-43.84L5.1 99.303ZM130.366 4.988l582 582h-43.841l-582-582Zm713.897 582-582-582h43.841l582 582zm-362.419-582 581.996 582H1020l-581.996-582Zm713.896 582-581.998-582h43.84l581.998 582Zm-362.417-582L1318.1 489.765v43.841L789.482 4.988Zm175.737 0 309.04 309.039v43.84L965.22 4.988Zm175.74 0 133.3 133.299v43.84L1140.96 4.988Z" style="fill:#606060;fill-opacity:1;stroke:#262626;stroke-opacity:1" transform="matrix(0 .54463 -.6995 0 416.24 3.026)"/></svg>
